X:1
Q:1/4=118
L:1/8
M:2/4
K:C clef=G2
V:1
%%MIDI program 0
[Acf]31/16[Acf]31/16|[Acf]31/16c3/4d3/4e3/4|[Acf]31/16c3/4d3/4e3/4|[Acf]15/8[Acfa]15/8|
[Gcg]15/8[Adf]15/8|[Gce]15/8d3/4e3/4f3/4|[^Afg]z/2f15/32[G^Ae]z/2d15/32|[CEGc]15/8[Dd]3/4[Ee]3/4[Ff]3/4|
[G^Adg]z/2[Ff]15/32[EGBe]z/2[Dd]15/32|[EGc]15/8[Acfa]15/8|[^Aeg]z/2[Ff]15/32[E^Ace]3/4[Ff]3/4[Gg]3/4|[FAcf]15/8z2|
[Cc]15/8[Dd]z/2[Ee]15/32|[Ff]z/2[Cc]15/32[Dd]z/2[Ee]15/32|[Ff]z/2[Cc]15/32[Dd]z/2[Ee]15/32|[FAcf]15/8z2|
[Acfa]15/8[Acfa]15/8|[^Adg^a]15/8[Acfa]15/8|[^Aeg]15/8[Adf]z/2[Gg]15/32|[Bfa]z/2[Ff]15/32[EGce]15/8|
[FAd]z/2[Ee]15/32[FAdf]z/2[Aa]15/32|[Gceg]15/8[Adf]15/8|[Gce]15/8[F^Ad]3/4[Ee]3/4[Gg]3/4|[CEGc]15/8z2|
[EGce]z/2[Dd]15/32[FBdf]z/2[Ee]15/32|[^Aeg]z/2[Ff]15/32[Acfa]z/2[Gg]15/32|[F^Adf]15/8[EG^Ae]z/2g15/32|[FAcf]15/8z2|
[Acfa]15/8[Acfa]15/8|[^Adg^a]15/8[Acfa]15/8|[^Aeg]15/8[Adf]z/2[Gg]15/32|[Bfa]z/2[Ff]15/32[Gce]15/8|
[FAd]z/2[Ee]15/32[FBf]z/2[Aa]15/32|[Gceg]15/8[FAdf]15/8|[EGce]15/8[DGBd]3/4[Ee]3/4[Gg]3/4|[CEGc]15/8z2|
[DG^A]3/4A3/4^A3/4[E^Ad]15/8|[CFc]15/8[G^A^dg]15/8|[FAcf]15/8[^FAc^d]15/8|[DG^Ad]15/8[CFc]15/8|
[DG^A]15/8[D^Ad]15/8|[CGc]15/8[CE^A]15/8|[CFA]15/8[^A,EG]z/2A15/32|[A,CF]15/8z2|
[DG^A]3/4A3/4^A3/4[E^Ad]15/8|[CFc]15/8[G^A^dg]15/8|[FAcf]15/8[^FAc^d]15/8|[DG^Ad]15/8[CFc]15/8|
[DG^A]15/8[D^Ad]15/8|[CGc]15/8[CE^A]15/8|[CFA]15/8[^A,EG]z/2A15/32|[A,CF]15/8z2|
[Acfa]30/8z7/32|[cc']15/8[Aa]15/8|[cc']15/8[^A^a]15/8|[Aa]15/8[Gg]15/8|
[f-F][f]31/64[Gg]15/32[Aa]z/2[^A^a]15/32|[Aa]15/8[Gg]15/8|[Ff]z/2[Ee]15/32[Ff]z/2[Gg]15/32|[Aa]15/8[Af]15/8|
[Acfa]30/8z7/32|[cc']15/8[Aa]15/8|[cc']15/8[^A^a]15/8|[Aa]15/8[Gg]15/8|
[Ff]z/2[Ee]15/32[Ff]z/2[Gg]15/32|[Aa]15/8[Ff]15/8|[Cc]3/4d3/4e3/4[Ff]z/2[Gg]15/32|[FAcf]15/8z2|
[A,CF]15/8[A,CF]z/2[A,CF]15/32|F15/8A3/4^A3/4c3/4|A3/4^A3/4c3/4dz/2e15/32|[Acf]15/8[Cc]15/8|
A3/4^A3/4c3/4[Dd]z/2[Ee]15/32|[FAcf]15/8z2|[Acfa]15/8z2|[FAcf]15/8z2|
[Cc]15/8[Dd]z/2[Ee]15/32|[Ff]z/2[Cc]15/32[Dd]z/2[Ee]15/32|[Ff]z/2[Cc]15/32[Dd]z/2[Ee]15/32|[Acf]15/8z2|
[A,CF]15/8z2|[A,CF]15/8z2|
L:1/8
M:2/4
K:C clef=F4
V:2
%%MIDI program 0
[F,,C,F,]15/8[F,,C,F,]15/8|[F,,C,F,]15/8[C,,C,]15/8|[F,,C,F,]15/8[C,,C,]15/8|[F,,C,F,]15/8[F,,C,F,]15/8|
[E,,E,]15/8[D,,A,,D,]15/8|[G,,E,]15/8D,3/4E,3/4F,3/4|[G,,D,G,]15/8[G,,^A,,F,]15/8|[C,,C,]15/8D,3/4E,3/4F,3/4|
[G,,D,G,]15/8[B,,B,]15/8|[C,C]15/8[F,,F,]15/8|[C,,C,]15/8[^A,C]15/8|[F,,C,F,]15/8z2|
[C,,C,]15/8[D,,D,]z/2[E,,E,]15/32|[F,,F,]z/2[C,,C,]15/32[D,,D,]z/2[E,,E,]15/32|[F,,F,]z/2[C,,C,]15/32[D,,D,]z/2[E,,E,]15/32|[F,,C,F,]15/8z2|
[F,,C,F,]15/8[F,,C,F,]15/8|[D,,D,]15/8[C,,C,]15/8|[C,,C,]15/8[D,,D,]15/8|[G,,D,G,]15/8[C,C]15/8|
[F,,F,]15/8[D,,D,]15/8|[G,,G,]15/8[D,D]15/8|[G,,G,]15/8[G,,,G,,]15/8|[C,,C,]15/8z2|
[C,C]15/8[G,,G,]15/8|[C,C]15/8[F,,F,]15/8|[C,C]15/8[C,,C,]15/8|[F,,C,F,]15/8z2|
[F,F]15/8[F,F]15/8|[D,D]15/8[C,C]15/8|[C,,C,]15/8[D,,D,]15/8|[G,,,G,,]15/8[C,,C,]15/8|
[D,,D,]15/8[G,,,G,,]15/8|[E,,E,]15/8[F,,F,]15/8|[G,,G,]15/8[G,,,G,,]15/8|[C,,C,]15/8z2|
[G,,G,]15/8[C,,C,]15/8|[A,,A,]15/8[C,,C,]15/8|[F,,F,]15/8[^F,,^F,]15/8|[G,,G,]15/8[A,,A,]15/8|
[G,,G,]15/8[F,,F,]15/8|[E,,E,]15/8[C,,C,]15/8|[F,,F,]15/8[C,,C,]15/8|[F,,F,]15/8z2|
[G,,G,]15/8[C,,C,]15/8|[A,,A,]15/8[C,,C,]15/8|[F,,F,]15/8[^F,,^F,]15/8|[G,,G,]15/8[A,,A,]15/8|
[G,,G,]15/8[F,,F,]15/8|[E,,E,]15/8[C,,C,]15/8|[F,,F,]15/8[C,,C,]15/8|[F,,F,]15/8z2|
F,15/16[A,CF]15/16C,15/16[A,CF]15/16|F,15/16[A,CF]15/16C,15/16[A,CF]15/16|E,15/16[G,^A,E]15/16C,15/16[G,^A,E]15/16|E,15/16[G,^A,E]15/16C,15/16[G,^A,E]15/16|
F,15/16[A,CF]15/16C,15/16[A,CF]15/16|E,15/16[G,^A,E]15/16C,15/16[G,^A,E]15/16|F,15/16[A,C]15/16C,15/16[A,C]15/16|F,15/16[A,C]15/16C,15/16[A,C]15/16|
F,15/16[A,CF]15/16C,15/16[A,CF]15/16|F,15/16[A,CF]15/16C,15/16[A,CF]15/16|E,15/16[G,^A,E]15/16C,15/16[G,^A,E]15/16|E,15/16[G,^A,E]15/16C,15/16[G,^A,E]15/16|
F,15/16[A,C]15/16C,15/16[A,C]15/16|F,15/16[A,C]15/16[C,F,]15/16[A,C]15/16|[C,,C,]3/4[D,,D,]3/4[E,,E,]3/4[F,,F,]z/2[G,,G,]15/32|[F,,F,]15/8z2|
[F,,F,]15/8[F,,F,]z/2[F,,F,]15/32|[F,,F,]15/8A,3/4^A,3/4C3/4|A,3/4^A,3/4C3/4Dz/2E15/32|[F,,F,]15/8[C,,C,]15/8|
A,3/4^A,3/4C3/4[C,^A,C]15/8|[F,,C,F,]15/8z2|[F,,C,F,]15/8z2|[F,,C,F,]15/8z2|
[C,,C,]15/8[D,,D,]z/2[E,,E,]15/32|[F,,F,]z/2[C,,C,]15/32[D,,D,]z/2[E,,E,]15/32|[F,,F,]z/2[C,,C,]15/32[D,,D,]z/2[E,,E,]15/32|[F,,C,F,]15/8z2|
[F,,C,F,]15/8z2|[F,,C,F,]15/8z2|
Q:1/4=118
L:1/8
M:2/4
K:C clef=G2
V:1
%%MIDI program 0
[CFA]15/8
L:1/8
M:2/4
K:C clef=F4
V:2
%%MIDI program 0
[F,,C,F,]15/8
Q:1/4=104
Q:1/4=59
L:1/8
M:2/4
K:C clef=F4
V:1
%%MIDI program 0
[A,CF]30/8(5:4z/4
L:1/8
M:2/4
K:C clef=F4
V:2
%%MIDI program 0
[F,,C,F,]30/8z/4
Q:1/4=89